X:370
T: Tom Keane's
R: Reel
S: John Kelly Sr.
M: 4/4
L: 1/8
K: C
A2|BGGA BGdG|BGG2 F3A|BGGA BGdG|BGA2 G2 :|
Bc|dgga dedc|Bcde f2ef|dgga dedc|BG (3ABA G2 :|

